X:1
T:Title
%%score { 1 | ( 2 3 ) }
L:1/8
M:4/4
K:C
V:1 treble nm="Grand Piano"
V:2 bass 
V:3 bass 
V:1
 z4 z2[Q:1/4=80] CE | [EG]<[EG] [EG]>[FA] [EG]<E DC |[M:3/4] [Ec]<[Ec] [Ec]>[Fd] [Ec]2 | %3
[M:1/4] [Ec][GB] |[M:4/4] AA A>^G A<c c>A |[M:3/4] [EG][Ec] [EG]>[CE] [B,D]2 |[M:1/4] CE | %7
[M:4/4] [EG]<[EG] [EG]>[FA] [EG]<E DC |[M:7/8] [Ec]>[Ec][Gc] d e3 |[M:1/4] dc | %10
[M:4/4] A>c c>A [EG]<[CE] [EG][EG] |[M:7/8] A>cc d [Ec]3 |[M:1/4] [EG][EG] | %13
[M:4/4] [Ec]<[Ec] [Ec][Fd] [Ge]<[Ec] [Ec][GB] |[M:3/4] A<c c>A [EG]2 |[M:1/4] [EG][EG] | %16
[M:4/4] [Ec]<[Ec] [Ec][Fd] [Ge]<[Ec] [Ec][GB] |[M:3/4] A<c c>A [EG]2 |[M:1/4] CE | %19
[M:4/4] [EG]<[EG] [EG]>[FA] [EG]<E DC |[M:7/8] [Ec]>[Ec][Gc] d e3 |[M:1/4] dc | %22
[M:4/4] A>c c>A [EG]<[CE] [EG][EG] |[M:15/8] A>ccd [Ec]2- [Ec] z2 z6 |] %24
V:2
 z4 z2 [C,E,][C,G,C] | [C,C]<[C,C] [C,C]>[C,C] [C,C]<[C,G,C] [C,F,C][C,E,] | %2
[M:3/4] [C,G,]<[C,G,] [C,G,]>[C,G,] [C,G,]2 |[M:1/4] [C,G,][E,G,] |[M:4/4] z4 .C2 z2 | %5
[M:3/4] [C,C][C,G,] [C,G,]>[C,G,] [G,,G,]2 |[M:1/4] [C,E,][C,G,C] | %7
[M:4/4] [C,C]<[C,C] [C,C]>[C,C] [C,C]<[C,G,C] [C,F,C][C,E,] | %8
[M:7/8] [C,G,]>[C,G,][E,C][K:treble] [G,B,G] [CG]3 |[M:1/4] [G,B,F][A,CE] | %10
[M:4/4] [F,CF]>[K:bass][F,A,F] [F,A,F]>[F,CF] [C,C]<[C,G,] [C,C][C,C] | %11
[M:7/8][K:treble] [F,CF]>[F,A,F][G,E] [G,F][K:bass] [C,G,]3 |[M:1/4] [C,C][C,C] | %13
[M:4/4] [C,G,]<[C,G,] [C,G,][C,G,] [C,G,]<[C,G,] [C,G,][E,G,] | %14
[M:3/4] [F,CF]<[F,A,F] [F,A,F]>[F,CF] [C,C]2 |[M:1/4] [C,C][C,C] | %16
[M:4/4] [C,G,]<[C,G,] [C,G,][C,G,] [C,G,]<[C,G,] [C,G,][E,G,] | %17
[M:3/4] [F,CF]<[F,A,F] [F,A,F]>[F,CF] [C,C]2 |[M:1/4] [C,E,][C,G,C] | %19
[M:4/4] [C,C]<[C,C] [C,C]>[C,C] [C,C]<[C,G,C] [C,F,C][C,E,] | %20
[M:7/8] [C,G,]>[C,G,][E,C][K:treble] [G,B,G] [CG]3 |[M:1/4] [G,B,F][A,CE] | %22
[M:4/4] [F,CF]>[K:bass][F,A,F] [F,A,F]>[F,CF] [C,C]<[C,G,] [C,C][C,C] | %23
[M:15/8][K:treble] [F,CF]>[F,A,F][G,E][G,F][K:bass] [C,G,]2- [C,G,] z2 z6 |] %24
V:3
 x8 | x8 |[M:3/4] x6 |[M:1/4] x2 | %4
[M:4/4] [F,CF][F,CF] [F,CF]>[F,CF] [F,F]-<[F,A,F] [F,A,F]>[F,CF] |[M:3/4] x6 |[M:1/4] x2 | %7
[M:4/4] x8 |[M:7/8] x3[K:treble] x4 |[M:1/4] x2 |[M:4/4] x3/2[K:bass] x13/2 | %11
[M:7/8][K:treble] x4[K:bass] x3 |[M:1/4] x2 |[M:4/4] x8 |[M:3/4] x6 |[M:1/4] x2 |[M:4/4] x8 | %17
[M:3/4] x6 |[M:1/4] x2 |[M:4/4] x8 |[M:7/8] x3[K:treble] x4 |[M:1/4] x2 | %22
[M:4/4] x3/2[K:bass] x13/2 |[M:15/8][K:treble] x4[K:bass] x11 |] %24

